public/assets/pieces/merida/obstacle.svg

<?xml version="1.0" encoding="UTF-8" standalone="no"?>
<svg
   height="110"
   width="110"
   version="1.1"
   id="svg882"
   sodipodi:docname="obstacle.svg"
   inkscape:version="1.1.2 (1:1.1+202202050950+0a00cf5339)"
   xmlns:inkscape="http://www.inkscape.org/namespaces/inkscape"
   xmlns:sodipodi="http://sodipodi.sourceforge.net/DTD/sodipodi-0.dtd"
   xmlns:xlink="http://www.w3.org/1999/xlink"
   xmlns="http://www.w3.org/2000/svg"
   xmlns:svg="http://www.w3.org/2000/svg"
   xmlns:rdf="http://www.w3.org/1999/02/22-rdf-syntax-ns#"
   xmlns:cc="http://creativecommons.org/ns#"
   xmlns:dc="http://purl.org/dc/elements/1.1/">
  <defs
     id="defs886">
    <linearGradient
       inkscape:collect="always"
       id="linearGradient1993">
      <stop
         style="stop-color:#5e5e60;stop-opacity:1;"
         offset="0"
         id="stop1989" />
      <stop
         style="stop-color:#5e5e60;stop-opacity:0;"
         offset="1"
         id="stop1991" />
    </linearGradient>
    <linearGradient
       inkscape:collect="always"
       id="linearGradient1977">
      <stop
         style="stop-color:#5e5e5e;stop-opacity:1;"
         offset="0"
         id="stop1973" />
      <stop
         style="stop-color:#5e5e5e;stop-opacity:0;"
         offset="1"
         id="stop1975" />
    </linearGradient>
    <linearGradient
       inkscape:collect="always"
       id="linearGradient1969">
      <stop
         style="stop-color:#525252;stop-opacity:1"
         offset="0"
         id="stop1965" />
      <stop
         style="stop-color:#999999;stop-opacity:0;"
         offset="1"
         id="stop1967" />
    </linearGradient>
    <linearGradient
       inkscape:collect="always"
       id="linearGradient1961">
      <stop
         style="stop-color:#000000;stop-opacity:1;"
         offset="0"
         id="stop1957" />
      <stop
         style="stop-color:#000000;stop-opacity:0;"
         offset="1"
         id="stop1959" />
    </linearGradient>
    <linearGradient
       inkscape:collect="always"
       id="linearGradient1953">
      <stop
         style="stop-color:#000000;stop-opacity:1;"
         offset="0"
         id="stop1949" />
      <stop
         style="stop-color:#000000;stop-opacity:0;"
         offset="1"
         id="stop1951" />
    </linearGradient>
    <inkscape:path-effect
       effect="bspline"
       id="path-effect1923"
       is_visible="true"
       lpeversion="1"
       weight="33.333333"
       steps="2"
       helper_size="0"
       apply_no_weight="true"
       apply_with_weight="true"
       only_selected="false" />
    <inkscape:path-effect
       effect="bspline"
       id="path-effect1919"
       is_visible="true"
       lpeversion="1"
       weight="33.333333"
       steps="2"
       helper_size="0"
       apply_no_weight="true"
       apply_with_weight="true"
       only_selected="false" />
    <inkscape:path-effect
       effect="bspline"
       id="path-effect1915"
       is_visible="true"
       lpeversion="1"
       weight="33.333333"
       steps="2"
       helper_size="0"
       apply_no_weight="true"
       apply_with_weight="true"
       only_selected="false" />
    <inkscape:path-effect
       effect="bspline"
       id="path-effect1911"
       is_visible="true"
       lpeversion="1"
       weight="33.333333"
       steps="2"
       helper_size="0"
       apply_no_weight="true"
       apply_with_weight="true"
       only_selected="false" />
    <inkscape:path-effect
       effect="bspline"
       id="path-effect1907"
       is_visible="true"
       lpeversion="1"
       weight="33.333333"
       steps="2"
       helper_size="0"
       apply_no_weight="true"
       apply_with_weight="true"
       only_selected="false" />
    <inkscape:path-effect
       effect="bspline"
       id="path-effect1903"
       is_visible="true"
       lpeversion="1"
       weight="33.333333"
       steps="2"
       helper_size="0"
       apply_no_weight="true"
       apply_with_weight="true"
       only_selected="false" />
    <inkscape:path-effect
       effect="bspline"
       id="path-effect1899"
       is_visible="true"
       lpeversion="1"
       weight="33.333333"
       steps="2"
       helper_size="0"
       apply_no_weight="true"
       apply_with_weight="true"
       only_selected="false" />
    <inkscape:perspective
       sodipodi:type="inkscape:persp3d"
       inkscape:vp_x="-102.70894 : 19.982688 : 1"
       inkscape:vp_y="0 : 812.81408 : 0"
       inkscape:vp_z="61.131293 : 19.982688 : 1"
       inkscape:persp3d-origin="-20.788831 : 5.0810974 : 1"
       id="perspective1760" />
    <linearGradient
       inkscape:collect="always"
       xlink:href="#linearGradient1953"
       id="linearGradient1955"
       x1="57.938061"
       y1="93.900208"
       x2="26.610607"
       y2="27.528654"
       gradientUnits="userSpaceOnUse" />
    <linearGradient
       inkscape:collect="always"
       xlink:href="#linearGradient1961"
       id="linearGradient1963"
       x1="93.490318"
       y1="60.278915"
       x2="6.1331396"
       y2="20.335171"
       gradientUnits="userSpaceOnUse" />
    <linearGradient
       inkscape:collect="always"
       xlink:href="#linearGradient1969"
       id="linearGradient1971"
       x1="52.41539"
       y1="10.288448"
       x2="87.488693"
       y2="69.24028"
       gradientUnits="userSpaceOnUse" />
    <linearGradient
       inkscape:collect="always"
       xlink:href="#linearGradient1977"
       id="linearGradient1979"
       x1="20.076305"
       y1="54.618431"
       x2="-55.58984"
       y2="-17.579689"
       gradientUnits="userSpaceOnUse" />
    <linearGradient
       inkscape:collect="always"
       xlink:href="#linearGradient1993"
       id="linearGradient1995"
       x1="37.860134"
       y1="29.181946"
       x2="116.01328"
       y2="131.51414"
       gradientUnits="userSpaceOnUse" />
  </defs>
  <sodipodi:namedview
     pagecolor="#ffffff"
     bordercolor="#666666"
     borderopacity="1"
     objecttolerance="10"
     gridtolerance="10"
     guidetolerance="10"
     inkscape:pageopacity="0"
     inkscape:pageshadow="2"
     inkscape:window-width="1920"
     inkscape:window-height="1028"
     id="namedview884"
     showgrid="false"
     inkscape:zoom="3.8954544"
     inkscape:cx="-13.092183"
     inkscape:cy="7.7012839"
     inkscape:window-x="0"
     inkscape:window-y="0"
     inkscape:window-maximized="1"
     inkscape:current-layer="svg882"
     inkscape:document-rotation="0"
     inkscape:pagecheckerboard="0" />
  <metadata
     id="metadata864">
    <rdf:RDF>
      <cc:Work
         rdf:about="">
        <dc:format>image/svg+xml</dc:format>
        <dc:type
           rdf:resource="http://purl.org/dc/dcmitype/StillImage" />
      </cc:Work>
    </rdf:RDF>
  </metadata>
  <path
     id="rect1790-5-9"
     style="opacity:0.818413;fill:url(#linearGradient1995);fill-opacity:1;stroke:#ffff30;stroke-width:0.282746;stroke-linecap:square;stroke-miterlimit:4;stroke-dasharray:none;stroke-opacity:1;paint-order:markers stroke fill"
     d="M 21.996451,14.192481 V 52.271317 90.35287 H 55.027313 88.058174 V 52.271317 14.192481 H 55.027313 Z" />
  <path
     style="opacity:0.818413;fill:url(#linearGradient1979);fill-opacity:1;stroke:#ffff30;stroke-width:0.16009;stroke-linecap:square;stroke-miterlimit:4;stroke-dasharray:none;stroke-opacity:1;paint-order:markers stroke fill"
     d="M 1.0741412,64.342398 C 0.99345106,39.232359 0.95780443,14.581834 0.99492643,9.563457 L 1.0624209,0.43913504 17.966042,9.3523856 l 4.178242,17.7141584 0.0049,27.639554 0.0049,27.639556 -9.555507,12.683251 C 7.3430118,102.0047 2.6330562,108.22626 2.1319532,108.85459 l -0.9111028,1.14244 z"
     id="path1931"
     sodipodi:nodetypes="ssccccccscs" />
  <path
     style="fill:none;stroke:#000000;stroke-width:1px;stroke-linecap:butt;stroke-linejoin:miter;stroke-opacity:1"
     d="m 0.60064434,110.33217 c 0,0 -0.35255245,-110.40404833 -0.35255245,-110.40404833 0,0 109.92855811,0.6389455 109.92855811,0.6389455"
     id="path1921"
     inkscape:path-effect="#path-effect1923"
     inkscape:original-d="M 0.60064434,110.33217 0.24809189,-0.07187833 110.17665,0.56706717" />
  <path
     style="opacity:0.818413;fill:url(#linearGradient1955);fill-opacity:1;stroke:#ffff30;stroke-width:0.16009;stroke-linecap:square;stroke-miterlimit:4;stroke-dasharray:none;stroke-opacity:1;paint-order:markers stroke fill"
     d="m 2.0194235,109.63682 c 0.04795,-0.0801 5.7476246,-4.27691 12.6659445,-9.32617 l 12.578763,-9.180467 27.339557,-3.08e-4 27.339557,-3.07e-4 13.283136,9.127252 13.283139,9.12726 -41.007761,0.10585 c -22.554266,0.0581 -46.534152,0.14783 -53.288636,0.1992 -6.7544846,0.0514 -12.2416492,0.0279 -12.1936995,-0.0522 z"
     id="path1925" />
  <path
     style="opacity:0.818413;fill:url(#linearGradient1963);fill-opacity:1;stroke:#ffff30;stroke-width:0.16009;stroke-linecap:square;stroke-miterlimit:4;stroke-dasharray:none;stroke-opacity:1;paint-order:markers stroke fill"
     d="M 99.006703,96.099206 88.184301,82.692734 88.196853,55.230628 88.209406,27.768523 99.223137,14.879253 C 105.28069,7.7901545 110.27339,2.0351849 110.31801,2.0904314 110.4014,2.193626 109.96014,109.34346 109.87594,109.44771 c -0.0258,0.0319 -4.91692,-5.97494 -10.869237,-13.348504 z"
     id="path1927" />
  <path
     style="opacity:0.818413;fill:url(#linearGradient1971);fill-opacity:1;stroke:#ffff30;stroke-width:0.16009;stroke-linecap:square;stroke-miterlimit:4;stroke-dasharray:none;stroke-opacity:1;paint-order:markers stroke fill"
     d="M 14.395803,7.2516741 C 7.3182222,3.5721899 1.5422595,0.55768462 1.5603301,0.55277362 1.7067364,0.51298521 84.681847,0.78331889 95.180745,0.85778982 L 108.67496,0.95350715 95.202245,7.4509304 81.729532,13.948353 54.49683,13.945 27.264131,13.941645 Z"
     id="path1929" />
</svg>

<svg xmlns="http://www.w3.org/2000/svg" xmlns:xlink="http://www.w3.org/1999/xlink" width="110" height="110"><defs><linearGradient id="e"><stop offset="0" style="stop-color:#5e5e60;stop-opacity:1"/><stop offset="1" style="stop-color:#5e5e60;stop-opacity:0"/></linearGradient><linearGradient id="d"><stop offset="0" style="stop-color:#5e5e5e;stop-opacity:1"/><stop offset="1" style="stop-color:#5e5e5e;stop-opacity:0"/></linearGradient><linearGradient id="c"><stop offset="0" style="stop-color:#525252;stop-opacity:1"/><stop offset="1" style="stop-color:#999;stop-opacity:0"/></linearGradient><linearGradient id="b"><stop offset="0" style="stop-color:#000;stop-opacity:1"/><stop offset="1" style="stop-color:#000;stop-opacity:0"/></linearGradient><linearGradient id="a"><stop offset="0" style="stop-color:#000;stop-opacity:1"/><stop offset="1" style="stop-color:#000;stop-opacity:0"/></linearGradient><linearGradient xlink:href="#a" id="h" x1="57.938" x2="26.611" y1="93.9" y2="27.529" gradientUnits="userSpaceOnUse"/><linearGradient xlink:href="#b" id="i" x1="93.49" x2="6.133" y1="60.279" y2="20.335" gradientUnits="userSpaceOnUse"/><linearGradient xlink:href="#c" id="j" x1="52.415" x2="87.489" y1="10.288" y2="69.24" gradientUnits="userSpaceOnUse"/><linearGradient xlink:href="#d" id="g" x1="20.076" x2="-55.59" y1="54.618" y2="-17.58" gradientUnits="userSpaceOnUse"/><linearGradient xlink:href="#e" id="f" x1="37.86" x2="116.013" y1="29.182" y2="131.514" gradientUnits="userSpaceOnUse"/></defs><path d="M21.996 14.192v76.16h66.062v-76.16h-33.03Z" style="opacity:.818413;fill:url(#f);fill-opacity:1;stroke:#ffff30;stroke-width:.282746;stroke-linecap:square;stroke-miterlimit:4;stroke-dasharray:none;stroke-opacity:1;paint-order:markers stroke fill"/><path d="M1.074 64.342c-.08-25.11-.116-49.76-.08-54.779L1.063.44l16.904 8.913 4.178 17.715.005 27.64.005 27.639L12.6 95.029c-5.256 6.976-9.966 13.197-10.467 13.826l-.911 1.142z" style="opacity:.818413;fill:url(#g);fill-opacity:1;stroke:#ffff30;stroke-width:.16009;stroke-linecap:square;stroke-miterlimit:4;stroke-dasharray:none;stroke-opacity:1;paint-order:markers stroke fill"/><path d="M.6 110.332.249-.072l109.929.64" style="fill:none;stroke:#000;stroke-width:1px;stroke-linecap:butt;stroke-linejoin:miter;stroke-opacity:1"/><path d="M2.02 109.637c.047-.08 5.747-4.277 12.665-9.326l12.58-9.18 27.339-.001h27.34l13.282 9.127 13.284 9.127-41.008.106c-22.555.058-46.534.148-53.289.2-6.754.05-12.242.027-12.194-.053z" style="opacity:.818413;fill:url(#h);fill-opacity:1;stroke:#ffff30;stroke-width:.16009;stroke-linecap:square;stroke-miterlimit:4;stroke-dasharray:none;stroke-opacity:1;paint-order:markers stroke fill"/><path d="M99.007 96.1 88.184 82.692l.013-27.462.012-27.462 11.014-12.89c6.058-7.089 11.05-12.844 11.095-12.789.083.104-.358 107.253-.442 107.358-.026.032-4.917-5.975-10.87-13.349z" style="opacity:.818413;fill:url(#i);fill-opacity:1;stroke:#ffff30;stroke-width:.16009;stroke-linecap:square;stroke-miterlimit:4;stroke-dasharray:none;stroke-opacity:1;paint-order:markers stroke fill"/><path d="M14.396 7.252C7.318 3.572 1.542.558 1.56.552c.147-.039 83.122.231 93.62.306l13.495.096L95.202 7.45 81.73 13.948l-27.233-.003-27.233-.003Z" style="opacity:.818413;fill:url(#j);fill-opacity:1;stroke:#ffff30;stroke-width:.16009;stroke-linecap:square;stroke-miterlimit:4;stroke-dasharray:none;stroke-opacity:1;paint-order:markers stroke fill"/></svg>
